X:1
T:Bethelehem’s Star, 66.99.66
T:Horatio Richmond Palmer, 1885
T:Bethelehem’s Star, 66.99.66
T:Public Domain
C:Horatio Richmond Palmer, 1885
Z:Public Domain
%%score 1 ( 2 3 )
L:1/8
M:6/8
K:C
V:1 treble 
V:2 bass 
V:3 bass 
V:1
 [EG]3 [CE]3 | [EG]3- [EG]2 z | [FA]3 [CF]3 | [FA]3- [FA]2 z | [^FA]3 [Fd]3 | [Gd]3- [Gd]2 z | %6
 [Fd]3 [FG]3 | [Ec]3- [Ec]2 z | [FG]2 [FA] [FB][Ec][Fd] | [Ec][CG][Ec] [Ge]2 z | %10
 [FG]2 [FA] [FB][Ec][Fd] | [Ec][CG][Ec] [Ge]2 z | [Ge]2 [Fd] [Ec][FB][Gc] | [F-d]3 [FA]2 z | %14
 [FG]2 [FA] [FB][Ec][Fd] | [Ec]3- [Ec]2 |] %16
V:2
 [C,C]3 [C,G,]3 | [C,C]3- [C,C]2 z | [F,C]3 [F,A,]3 | [F,C]3- [F,C]2 z | [D,C]3 [D,C]3 | %5
 [G,B,]3- [G,B,]2 z | [G,B,]3 [G,B,]3 | [C,C]3- [C,C]2 z | [G,B,]2 [G,C] [G,D][G,C][G,B,] | %9
 [C,C][E,C][G,C] C2 z | [G,B,]2 [G,C] [G,D][G,C][G,B,] | [C,C][E,C][G,C] C2 z | %12
 [C,C]2 [C,C] [C,G,][D,G,][E,G,] | [F,-A,]3 [F,D]2 z | [G,B,]2 [G,C] [G,D][G,C][G,B,] | %15
 [C,G,]3- [C,G,]2 |] %16
V:3
 x6 | x6 | x6 | x6 | x6 | x6 | x6 | x6 | x6 | x3 C2 x | x6 | x3 C2 x | x6 | x6 | x6 | x5 |] %16

